loleaflet/images/lc_deleteaxis.svg

<svg viewBox="0 0 24 24" xmlns="http://www.w3.org/2000/svg"><path d="m12 5c-.554 0-1 .446-1 1v12c0 .554.446 1 1 1h2c.554 0 1-.446 1-1v-.839844l-2.722656-2.722656a1.0229208 1.0229208 0 0 1 0-1.445312l.714844-.714844a1.0229208 1.0229208 0 0 1 .707031-.300782 1.0229208 1.0229208 0 0 1 .738281.300782l.5625.5625v-6.839844c0-.554-.446-1-1-1zm-5 3c-.554 0-1 .446-1 1v9c0 .554.446 1 1 1h2c.554 0 1-.446 1-1v-9c0-.554-.446-1-1-1zm10 3c-.554 0-1 .446-1 1v1.839844l2 2 2-2v-1.839844c0-.554-.446-1-1-1z" fill="#3a3a38"/><path d="m4.5 2c-.277 0-.5.223-.5.5v16.5h-1.5c-.277 0-.5.223-.5.5s.223.5.5.5h1.5v1.5c0 .277.223.5.5.5s.5-.223.5-.5v-1.5h8.839844l1-1h-9.839844v-16.5c0-.277-.223-.5-.5-.5z" fill="#ed3d3b"/><path d="m12 6v7.511719a1.0229208 1.0229208 0 0 1 .277344-.519531l.714844-.714844a1.0229208 1.0229208 0 0 1 .707031-.300782 1.0229208 1.0229208 0 0 1 .300781.041016v-6.017578zm-5 3v9h2v-9zm10 3v2.839844l1 1 1-1v-2.839844zm-5 1.921875v4.078125h2v-1.839844l-1.722656-1.722656a1.0229208 1.0229208 0 0 1 -.277344-.515625z" fill="#c8c6c4"/><path d="m22.285683 12.999968-4.285715 4.285714-4.285715-4.285714-.714285.714285 4.285714 4.285715-4.285714 4.285715.714285.714285 4.285715-4.285714 4.285715 4.285714.714285-.714285-4.285714-4.285715 4.285714-4.285715z" fill="#ed3d3b"/></svg>

<?xml version="1.0" encoding="UTF-8" standalone="no"?>
<svg
   xmlns:dc="http://purl.org/dc/elements/1.1/"
   xmlns:cc="http://creativecommons.org/ns#"
   xmlns:rdf="http://www.w3.org/1999/02/22-rdf-syntax-ns#"
   xmlns:svg="http://www.w3.org/2000/svg"
   xmlns="http://www.w3.org/2000/svg"
   xmlns:sodipodi="http://sodipodi.sourceforge.net/DTD/sodipodi-0.dtd"
   xmlns:inkscape="http://www.inkscape.org/namespaces/inkscape"
   viewBox="0 0 24 24"
   version="1.1"
   id="svg26"
   sodipodi:docname="lc_deleteaxis.svg"
   inkscape:version="0.92.5 (2060ec1f9f, 2020-04-08)">
  <metadata
     id="metadata32">
    <rdf:RDF>
      <cc:Work
         rdf:about="">
        <dc:format>image/svg+xml</dc:format>
        <dc:type
           rdf:resource="http://purl.org/dc/dcmitype/StillImage" />
        <dc:title />
      </cc:Work>
    </rdf:RDF>
  </metadata>
  <defs
     id="defs30" />
  <sodipodi:namedview
     pagecolor="#ffffff"
     bordercolor="#666666"
     borderopacity="1"
     objecttolerance="10"
     gridtolerance="10"
     guidetolerance="10"
     inkscape:pageopacity="0"
     inkscape:pageshadow="2"
     inkscape:window-width="1366"
     inkscape:window-height="700"
     id="namedview28"
     showgrid="true"
     inkscape:zoom="9.8333333"
     inkscape:cx="-5.6907666"
     inkscape:cy="11.476843"
     inkscape:window-x="0"
     inkscape:window-y="0"
     inkscape:window-maximized="1"
     inkscape:current-layer="svg26">
    <inkscape:grid
       type="xygrid"
       id="grid1482" />
  </sodipodi:namedview>
  <path
     style="fill:#3a3a38"
     d="M 12 5 C 11.446 5 11 5.446 11 6 L 11 18 C 11 18.554 11.446 19 12 19 L 14 19 C 14.554 19 15 18.554 15 18 L 15 17.160156 L 12.277344 14.4375 A 1.0229208 1.0229208 0 0 1 12.277344 12.992188 L 12.992188 12.277344 A 1.0229208 1.0229208 0 0 1 13.699219 11.976562 A 1.0229208 1.0229208 0 0 1 14.4375 12.277344 L 15 12.839844 L 15 6 C 15 5.446 14.554 5 14 5 L 12 5 z M 7 8 C 6.446 8 6 8.446 6 9 L 6 18 C 6 18.554 6.446 19 7 19 L 9 19 C 9.554 19 10 18.554 10 18 L 10 9 C 10 8.446 9.554 8 9 8 L 7 8 z M 17 11 C 16.446 11 16 11.446 16 12 L 16 13.839844 L 18 15.839844 L 20 13.839844 L 20 12 C 20 11.446 19.554 11 19 11 L 17 11 z "
     id="rect2" />
  <g
     fill="#3a3a38"
     transform="matrix(0 -1 -1 0 0 0)"
     id="g8">
    <path
       d="M 4.5,2 C 4.223,2 4,2.223 4,2.5 V 19 H 2.5 C 2.223,19 2,19.223 2,19.5 2,19.777 2.223,20 2.5,20 H 4 v 1.5 C 4,21.777 4.223,22 4.5,22 4.777,22 5,21.777 5,21.5 V 20 h 8.839844 l 1,-1 H 5 V 2.5 C 5,2.223 4.777,2 4.5,2 Z"
       transform="matrix(0,-1,-1,0,0,0)"
       id="rect4"
       inkscape:connector-curvature="0"
       sodipodi:nodetypes="sscssscsssccccss"
       style="fill:#ed3d3b" />
  </g>
  <path
     style="fill:#c8c6c4"
     d="M 12 6 L 12 13.511719 A 1.0229208 1.0229208 0 0 1 12.277344 12.992188 L 12.992188 12.277344 A 1.0229208 1.0229208 0 0 1 13.699219 11.976562 A 1.0229208 1.0229208 0 0 1 14 12.017578 L 14 6 L 12 6 z M 7 9 L 7 18 L 9 18 L 9 9 L 7 9 z M 17 12 L 17 14.839844 L 18 15.839844 L 19 14.839844 L 19 12 L 17 12 z M 12 13.921875 L 12 18 L 14 18 L 14 16.160156 L 12.277344 14.4375 A 1.0229208 1.0229208 0 0 1 12 13.921875 z "
     id="path10" />
  <g
     fill="#1e8bcd"
     id="g16" />
  <path
     inkscape:connector-curvature="0"
     d="m 22.285683,12.999968 -4.285715,4.285714 -4.285715,-4.285714 -0.714285,0.714285 4.285714,4.285715 -4.285714,4.285715 0.714285,0.714285 4.285715,-4.285714 4.285715,4.285714 0.714285,-0.714285 -4.285714,-4.285715 4.285714,-4.285715 z"
     id="path14"
     style="fill:#ed3d3b" />
</svg>
